X:1
T:In The Hills Of Shilloh
M:4/4
L:1/4
K:C
 C E G G| ^F D E2| D E C A,| G, A,3| C E G G| ^F D E2| D E C A,| G, A,3|\
 A G E C| E E ^F2| A G E C| D B, G,2| C E G G| ^F D E2| D E C A,| G, A,3|\
